!!!!SEGMENT: pl-kk--kk-i-313--001_anonim--veni-sponsa.krn
!!!cenid: 17xx:2113
!!!COM: Anonim
!!!COM-rismID: pe30004985
!!!CDT:
!!!CNT:
!!!OTL: Veni sponsa
!!!PDT:
!!!AGN: Sacred
!!!SMS-siglum: PL-Kk
!!!SMS-shelfmark: Kk.I.313
!!!SMS-shelfwork: 001 W
!!!SMS-variant:
!!!SMS-altvar:
!!!NIFC-rismSourceID: 1001147270
!!!NIFC-islandoraID: pl-kk:5275
!!!URL-pdf-islandora: https://repozytorium.nifc.pl/islandora/object/pl-kk%3A5275/datastream/PDF/view
!!!URL-scan: https://polish.musicsources.pl/pl/lokalizacje/galeria/rekopisy/5932 @EN{Scan on Polish Music Sources Website} @PL{Skany w portalu Dziedzictwo Muzyki Polskiej w otwartym dostępie}
!!!ONB-nifc: UWAGA: utwory w zbiorze: 1. Veni sponsa, 2. Haec est Virgo, 3. Sub tuum praesidium
!!!AIN: 1 bass
!!!key:
**kern	**text
*Ibass	*
*I"[Bassus]	*
*I'[B]	*
*clefF3	*
*k[]	*
*C:	*
*M2/1	*
*met(C|)	*
=1-	=1-
!LO:TX:a:t=De S(an)ctis Virginibus.	!
00r	.
=2-	=2-
.	.
=3-	=3-
00r	.
=4-	=4-
.	.
=5-	=5-
!LO:TX:t=P:problem=kreska pseudotaktowa	!
0r	.
=6-	=6-
0G	Ve-
=7-	=7-
!LO:TX:t=P:problem=kreska pseudotaktowa	!
1E	-ni
1G	Spon-
=8-	=8-
!LO:TX:t=P:problem=kreska pseudotaktowa	!
1A	-sa
*2\right	*
2.G\	Chri-
8F\L	.
!LO:TX:t=P:problem=kreska pseudotaktowa	!
8E\J	.
=9-	=9-
4F\	.
4G\	.
4A\	.
4F\	.
1G	.
=10-	=10-
!LO:TX:t=P:problem=kreska pseudotaktowa	!
1D	-sti
1rc	.
=11-	=11-
1G	Ve-
!LO:TX:t=P:problem=kreska pseudotaktowa	!
1C,<	-ni
=12-	=12-
1.G	Spon-
2E/	-ſa
=13-	=13-
2.F/	X-
4E/	.
1D	.
=14-	=14-
!LO:TX:t=P:problem=kreska pseudotaktowa	!
1C	-ti
!LO:TX:t=P:problem=na początku systemu błędnie klucz F4 (do taktu nr 33)	!
!LO:TX:t=P:problem=kreska pseudotaktowa	!
!LO:LB:g=original	!
0r	.
=15-	=15-
.	.
1c	ac-
=16-	=16-
2A\	-ci-
1B-X	-pe
!LO:TX:t=P:problem=kreska pseudotaktowa	!
2c\	Co-
=17-	=17-
1A	-ro-
2G,<\	-na(m)
!LO:TX:t=P:problem=kreska pseudotaktowa	!
2E/	co-
=18-	=18-
4F/	-ro-
8E/L	.
8D/J	.
2.C/	.
4D/	.
4E/	.
!LO:TX:t=P:problem=kreska pseudotaktowa	!
4F/	.
=19-	=19-
4G\	.
8F\L	.
8E\J	.
!LO:TX:t=P:problem=kreska pseudotaktowa	!
2D/	.
2G,<\	-nam
1G\	ac-
=20-	=20-
.	.
!LO:TX:t=P:problem=kreska pseudotaktowa	!
2E/	-ci-
2F\	-pe
!LO:TX:t=P:problem=kreska pseudotaktowa	!
2G\	co-
=21-	=21-
1A	-ro-
!LO:TX:t=P:problem=kreska pseudotaktowa	!
1G	-nam.
=22-	=22-
0G	Ve-
=23-	=23-
!LO:TX:t=P:problem=kreska pseudotaktowa	!
1E	-ni
!LO:LB:g=original	!
1G	Spon-
=24-	=24-
!LO:TX:t=P:problem=kreska pseudotaktowa	!
1A	-sa
2.G\	Chri-
8F/L	.
8E/J	.
=25-	=25-
4F\	.
4G\	.
4A\	.
!LO:TX:t=P:problem=kreska pseudotaktowa	!
4F\	.
1G	.
=26-	=26-
!LO:TX:t=P:problem=kreska pseudotaktowa	!
1D	-sti!
!LO:TX:t=P:problem=kreska pseudotaktowa	!
1rc	.
=27-	=27-
1G	Ve-
!LO:TX:t=P:problem=kreska pseudotaktowa	!
1C	-ni
=28-	=28-
1.G	Spon-
!LO:TX:t=P:problem=kreska pseudotaktowa	!
2E/	-sa
=29-	=29-
2.F/	X-
4E/	.
1D	-ti!
=30-	=30-
!LO:TX:t=P:problem=kreska pseudotaktowa	!
1C	.
1r	.
=31-	=31-
1c	ac-
2A\	-ci-
!LO:TX:t=P:problem=kreska pseudotaktowa	!
[<2B-X\	-pe
=32-	=32-
2B-]	.
2c\	co-
1A	-ro-
=33-	=33-
2G,<\	-na(m)
!LO:TX:t=P:problem=kreska pseudotaktowa	!
2E/	Co-
!LO:LB:g=original	!
4F/	-ro-
8E/L	.
8D/J	.
2.C/	.
=34-	=34-
.	.
4D/	.
4E/	.
!LO:TX:t=P:problem=kreska pseudotaktowa	!
4F/	.
4G\	.
8F\L	.
8E\J	.
!LO:TX:t=P:problem=kreska pseudotaktowa	!
2D/	.
=35-	=35-
2G,<\	-nam:
1G	ac-
!LO:TX:t=P:problem=kreska pseudotaktowa	!
2E/	-ci-
=36-	=36-
2F\	-pe
2G\	co-
1A	-ro-
=37-	=37-
!LO:TX:t=P:problem=kreska pseudotaktowa	!
1G	-na(m).
!LO:TX:t=P:problem=kreska pseudotaktowa	!
0r	.
=38-	=38-
.	.
2rE	.
2D/	quam
=39-	=39-
2E/	Ti-
2F/	-bi
2G\	Do-
!LO:TX:t=P:problem=kreska pseudotaktowa	!
2A\	-mi-
=40-	=40-
2D,</	-n(us)
1d	prae-
!LO:TX:t=P:problem=kreska pseudotaktowa	!
2c\	-pa-
=41-	=41-
4A\	-ra-
4Bny\	.
4c\	.
!LO:TX:t=P:problem=kreska pseudotaktowa	!
4A\	.
!LO:LB:g=original	!
4Bn\	.
4c\	.
!LO:TX:t=P:problem=kreska pseudotaktowa	!
2d\	.
=42-	=42-
2A,<\	-vit
1A	prae-
!LO:TX:t=P:problem=kreska pseudotaktowa	!
2F\	-pa-
=43-	=43-
4G\	-ra-
8F\L	.
8E\J	.
4D/	.
4E/	.
4F\	.
4G\	.
1A\	.
=44-	=44-
.	.
!LO:TX:t=P:problem=kreska pseudotaktowa	!
2F\	-vit
2G\	in
2G\	ae-
=45-	=45-
1D	-ter-
!LO:TX:t=P:problem=kreska pseudotaktowa	!
1G,<	-nu(m).
=46-	=46-
2rE	.
!LO:TX:t=P:problem=kreska pseudotaktowa	!
2D/	quam
2E/	Ti-
!LO:TX:t=P:problem=kreska pseudotaktowa	!
2F/	-bi
=47-	=47-
2G\	Do-
2A\	-mi-
2D,</	-n(us)
1d\	prae-
=48-	=48-
.	.
!LO:TX:t=P:problem=kreska pseudotaktowa	!
2c\	-pa-
!LO:LB:g=original	!
4A\	-ra-
4B\	.
4c\	.
4A\	.
=49-	=49-
4B\	.
4c\	.
!LO:TX:t=P:problem=kreska pseudotaktowa	!
2d\	.
2A,<\	-vit
1A\	prae-
=50-	=50-
.	.
!LO:TX:t=P:problem=kreska pseudotaktowa	!
2F\	-pa-
4G\	-ra-
8F\L	.
8E\J	.
4D/	.
4E/	.
=51-	=51-
4F\	.
4G\	.
1A	.
!LO:TX:t=P:problem=kreska pseudotaktowa	!
2F,<\	-vit
=52-	=52-
2G\	in
2G\	ae-
1D	-ter-
=53-	=53-
!LO:TX:t=P:problem=kreska pseudotaktowa	!
1G	-num.
0r	.
=54-	=54-
.	.
1r	.
=55-	=55-
2r	.
1G	prae-
2F\	-pa-
=56-	=56-
4D/	-ra-
4E/	.
4F/	.
!LO:TX:t=P:problem=kreska pseudotaktowa	!
4D/	.
4E/	.
4F\/	.
2G/	.
=57-	=57-
2C,</	-vit
1F	in
!LO:TX:t=P:problem=kreska pseudotaktowa	!
2G\	ae-
!LO:LB:g=original	!
=58-	=58-
2.A\	-ter-
4G\	.
!LO:TX:t=P:problem=kreska pseudotaktowa	!
1F,<	-num
=59-	=59-
2.G\	in
4F/	ae-
4E/	.
4D/	.
!LO:TX:t=P:problem=kreska pseudotaktowa	!
2C/	-ter-
=60-	=60-
1c	.
1B	.
=61-	=61-
*lig	*
1c	.
1C	.
*Xlig	*
=62-	=62-
!LO:TX:b:t=Item de\nS(an)ctis Virginib(us)	!
0Gl;	-num!
==	==
*-	*-
!!!RDF**kern: > = above
!!!RDF**kern: < = below
!!!RDF**kern: l = terminal long
!!!ENC: Andrzej Kubiczek
!!!END: 2021-04-09
!!!ENC: Mateusz Solarz
!!!END: 2021-03-15
!!!YEC: Copyright 2022 Narodowy Instytut Fryderyka Chopina (https://polishscores.org)
!!!YEM: Licence CC BY 4.0 (https://creativecommons.org/licenses/by/4.0)
